images/other-seat2.svg

<svg width="51" height="50" viewBox="0 0 51 50" fill="none" xmlns="http://www.w3.org/2000/svg">
<path fill-rule="evenodd" clip-rule="evenodd" d="M48.3042 14.3531C35.9647 14.3531 23.6252 14.3531 11.2857 14.3531C8.19757 14.3531 5.10202 14.3754 2.0139 14.3494C1.05014 14.3419 0.944292 14.6688 0.595183 15.2723C0.29807 15.7867 0.0993751 16.3085 0.0622359 16.9844C-0.0176133 18.4347 0.0548081 20.0985 0.0548081 21.5729C0.0548081 27.6879 -0.0733221 33.9366 0.0622359 40.0441L49.5316 40.033C49.4444 33.4111 49.5242 26.4939 49.5242 19.8181C49.5242 16.9305 49.8009 16.1692 48.3042 14.3549V14.3531Z" fill="white"/>
<path fill-rule="evenodd" clip-rule="evenodd" d="M0.390864 10.2566C0.561705 11.4784 1.12065 12.2454 1.77058 12.847C2.15126 13.198 2.83834 13.0698 3.48084 13.0698H28.9416C30.4123 13.0698 47.9643 13.2258 48.4341 12.9659C49.0618 12.6186 49.7526 11.5564 49.9475 10.5852C50.1314 9.67533 50.0942 3.79248 49.8807 2.97356C49.617 1.96337 48.9132 1.09246 48.1983 0.654217C47.0711 -0.0384291 46.5047 0.00613797 44.9393 0.00613797H5.72405C4.25334 0.00613797 3.49199 -0.0978517 2.36296 0.550227C1.53847 1.02189 0.931239 1.69783 0.598844 2.6913C0.270162 3.67549 0.220024 9.05324 0.389007 10.2547L0.390864 10.2566Z" fill="white"/>
<path fill-rule="evenodd" clip-rule="evenodd" d="M3.05015 41.3513C3.00929 43.524 3.04829 45.7337 3.04829 47.9101C3.04829 49.9472 2.92387 49.9732 4.3593 49.9602C5.43077 49.9509 6.50595 49.9583 7.57927 49.9583C11.0574 49.9583 10.4576 50.5284 11.0815 46.9222L12.0675 41.3606L3.052 41.3513H3.05015Z" fill="white"/>
<path fill-rule="evenodd" clip-rule="evenodd" d="M46.4956 49.4645L46.5271 41.3607L37.5283 41.37C37.5395 41.9772 38.3361 45.9808 38.5088 46.9316C39.2107 50.7774 37.8199 49.8842 45.335 49.9622C45.9199 49.9696 46.3823 49.9974 46.4974 49.4663L46.4956 49.4645Z" fill="white"/>
</svg>

<svg width="51" height="50" fill="none" xmlns="http://www.w3.org/2000/svg"><path fill-rule="evenodd" clip-rule="evenodd" d="M48.304 14.353H11.286c-3.088 0-6.184.022-9.272-.004-.964-.007-1.07.32-1.419.923-.297.515-.496 1.036-.533 1.712-.08 1.45-.007 3.114-.007 4.589 0 6.115-.128 12.364.007 18.471l49.47-.011c-.088-6.622-.008-13.54-.008-20.215 0-2.888.277-3.649-1.22-5.463v-.002zM.39 10.257c.172 1.221.73 1.988 1.38 2.59.381.351 1.068.223 1.71.223h25.462c1.47 0 19.022.156 19.492-.104.628-.347 1.319-1.41 1.514-2.38.183-.91.146-6.794-.067-7.612-.264-1.01-.968-1.882-1.683-2.32-1.127-.692-1.693-.648-3.259-.648H5.724c-1.47 0-2.232-.104-3.361.544C1.538 1.022.931 1.698.599 2.691.27 3.675.22 9.053.389 10.255l.002.002zm2.66 31.094c-.04 2.173-.002 4.383-.002 6.56 0 2.036-.124 2.062 1.311 2.05 1.072-.01 2.147-.003 3.22-.003 3.478 0 2.879.57 3.503-3.036l.986-5.561-9.016-.01H3.05zm43.446 8.114l.031-8.104-8.999.009c.011.607.808 4.61.98 5.562.703 3.845-.688 2.952 6.827 3.03.585.008 1.047.035 1.162-.496l-.001-.002z" fill="#fff"/></svg>
